X:23
T:Pretty Nun. PFD3.023
B:Playford, Dancing Master Vol 3, 2nd Ed, c1726
Z:village music project, Steve Mansfield 2015
M:6/4
L:1/4
W:Longways for as many as will
W:Note: Each Strain is to be Play'd twice over.
W:The first Couple take both Hands, the second Couple so the same, and go round
W:into each others Place .| The same back again |: Then the first Man change
W:Places with the second Woman, then the second Man with the first Woman,
W:and all four turn single .| Then Hands across and turn quite round,
W:then first Couple turn proper |:
N:Repeats inserted to match dance instructions
N:NB 1st and 2nd repeats added by transcriber, original
N:Mss only shows bar transcribed as the first repeat
Q:3/4=100
K:A
A3 E3 | C>DE A,2A | D2B E2c |1 "NB" Fdc B3 :|[2 Fdc B2 |: e | a3 e3 |
c>de A2f | G2e F2d | EcA BGE |FAC B,B^G | A3- A2 :|

